X: 98
T: the Farraway Wedding
T: Longways.
%R: slip-jig
B: Daniel Wright "Wright's Compleat Collection of Celebrated Country Dances" 1740 p.49
S: http://library.efdss.org/cgi-bin/dancebooks.cgi
Z: 2014 John Chambers <jc:trillian.mit.edu>
M: 9/8
L: 1/8
K: A
% - - - - - - - - - - - - - - - - - - - - - - - - -
[|\
cAA f2e cAA | cAA f2e gBB |\
cAA f2e cAA | BGB gae dBB |]
[|\
c2e fga ecA | c2e fga BGB |\
c2e fga ecA | BGB g(a/g/f/e/) dBB |]
[|\
c2A AcA AcA | c2A AcA BGB |\
d2A AcA AcA | (BG)B g(a/g/f/e/) dBB |]
% - - - - - - - - - - - - - - - - - - - - - - - - -
%%begintext align
%% The 1st Man turn his Partner quite round with
%% both Hands, then cast off behind the 2d Cu. and
%% Double Figure with the 2d Cu. Then double
%% Figure with the 3d Cu. and lead thro' the Top.
%% Then cast down into the 2d Cu. Place.
%%endtext
% - - - - - - - - - - - - - - - - - - - - - - - - -
%%sep 2 4 300
